X:190
T: Amei jinri ba lu shang
N: C1682
O: China,ÿJiangxi, Ganxian
S: IV, 244]
R: Xiaodiao, Chage, Shuzhuang]
M: 2/4
L: 1/16
K: C
E2Ace2d2 | dcd6 | e2z2d2g2 | dcA2E2e2 | G6cA |
E2c2AGEG | d3ge4 | d3ge4 | dedcAcGA | cAd6 |
E2e2d2A2 | cAG4Ac | AGEGE4 |
E2e2d2Ac | dcd4Ac | GAcAc4 | AcG2A2d2 | c2A2c4

